Modules/BetterCms.Module.Root/Scss/assets/icons/align-right.svg

<?xml version="1.0" encoding="utf-8"?>
<!-- Generator: Adobe Illustrator 19.1.0, SVG Export Plug-In . SVG Version: 6.00 Build 0)  -->
<svg version="1.1" id="Layer_1" xmlns="http://www.w3.org/2000/svg" xmlns:xlink="http://www.w3.org/1999/xlink" x="0px" y="0px"
	 width="33px" height="39px" viewBox="-867.5 1131.5 33 39" style="enable-background:new -867.5 1131.5 33 39;"
	 xml:space="preserve">
<path style="fill:#FFFFFF;stroke:#D0D0D0;stroke-linecap:square;" d="M-867,1132h32v38h-32V1132z"/>
<path style="fill:#AFAFAF;" d="M-842.5,1146.5h-12v-8h12V1146.5z M-842.5,1150.5h-18v-2h18V1150.5z M-842.5,1154.5h-15v-2h15V1154.5
	z M-842.5,1158.5h-18v-2h18V1158.5z M-842.5,1162.5h-9v-2h9V1162.5z"/>
</svg>

<svg xmlns="http://www.w3.org/2000/svg" width="33" height="39" viewBox="-867.5 1131.5 33 39" enable-background="new -867.5 1131.5 33 39"><path d="m-867 1132h32v38h-32v-38z" fill="#fff" stroke="#d0d0d0" stroke-linecap="square"/><path d="m-842.5 1146.5h-12v-8h12v8m0 4h-18v-2h18v2m0 4h-15v-2h15v2m0 4h-18v-2h18v2m0 4h-9v-2h9v2" fill="#afafaf"/></svg>
